settings/img/admin.svg

<?xml version="1.0" encoding="UTF-8" standalone="no"?>
<svg xmlns="http://www.w3.org/2000/svg" height="16" width="16" version="1.0">
 <rect style="color:#000000" fill-opacity="0" height="97.986" width="163.31" y="-32.993" x="-62.897"/>
 <path style="block-progression:tb;color:#000000;text-transform:none;text-indent:0" d="m2 3v3h3v-3h-3zm4 1v1h8v-1h-8zm-4 3v3h3v-3h-3zm4 1v1h8v-1h-8zm-4 3v3h3v-3h-3zm1 1h1v1h-1v-1zm3 0v1h8v-1h-8z"/>
</svg>

<svg xmlns="http://www.w3.org/2000/svg" height="16" width="16" version="1"><path color="#000" fill="none" d="M-62.897-32.993h163.31v97.986h-163.31z"/><path style="block-progression:tb;text-transform:none;text-indent:0" d="M2 3v3h3V3H2zm4 1v1h8V4H6zM2 7v3h3V7H2zm4 1v1h8V8H6zm-4 3v3h3v-3H2zm1 1h1v1H3v-1zm3 0v1h8v-1H6z" color="#000"/></svg>
